X:270
T: MEINST DU DENN ICH SOLL MICH KRAENKEN UEBER DEINE FALSCHE TREU
N: Z0268
O: Europa, Mitteleuropa, Deutschland, Rheinpfalz
N: Die letzten 8 Takte werden auf die Silbe 'ai' gesungen.
R: Lyrisches Lied, Romanze
M: 3/4
L: 1/8
K: D
FG | A3FBA | ACE2
EF | G3EAG | F4
FG | A3FBA | ACE2
EF | G3EAC | D4
FA | Age2cA | Afd2
dF | Age2cA | Afd2
dF | Age2cA | Afd2
dF | Age2Af | d4

